X:644
T:Da Road To Houll
C:Joe Buchanan's Scottish Tome - Page 194.1
I:194 1
C:Tom Anderson
Z:Carl Allison
R:Reel
L:1/8
M:4/4
K:D
A2 | "D"d2 fd A2 dA | "G"GABG "Em"E2 FG | "D"A2 A2 ABcd | "E7"f2 e2 "A7"e2 A2 |
"D"d2 fd A2 dA | "G"GABG "Em"E2 (FG) | "D"A2 A2 "A7"ABAG | "D"F2 D2 D2 :|
(fg) | "D"a2 af d2 dA | "G"BABd "D"A2 F2 | "G"G2 B2 "D"ABcd | "D"f2 e2 e2 (fg) |
"D"a2 af d2 dA | "G"BABd "D"A2 F2 | "G"G2 B2 "A7"ABAG | "D"F2 D2 D2 (fg) |
"D"a2 af d2 dA | "G"BABd "D"A2 F2 | "G"G2 B2 "D"ABcd | "E7"f2 e2 "A7"e2 A2 |
"D"d2 fd A2 dA | "G"GABG "Em"E2 (FG) | "D"A2 A2 "A7"ABAG | "A7"F2 D2 "D"D2 |]
